X: 5
T: John Bowes
M:C|
Q:1/4=140
L: 1/8
K: C
"C" G,CEC "G" B,DGF | "C" EGcB cGEG | "Dm" FAdF "C" EGcE | "G" FEDC B,G,A,B, |
"C" CCDC "G" B,DGF | "Am" EGcB "Em" cGEG | "F" FAdc "Dm" BGFD |1 "G" ECCB, "C" C4 :|2 "G" ECCB, "C" C2 ||
|: ef | "C" ge (3.e.e.e "G" fdBd | "C" c2 Bd cGEG | "Dm" FAdF "C" EGce | "G" fedc defa |
"C" ge (3.e.e.e "G" fdBd | "Am" c2 Bd "Em" cGEG | "F" FAdc "Dm" BGFD |1 "G" ECCB, "C" C2 :|2 "G" ECCB, "C" C4 |]

